src/lib/assets/icons/events.svg

<svg width="180" height="180" viewBox="0 0 180 180" fill="none" xmlns="http://www.w3.org/2000/svg">
<path d="M143.4 39.4617H131.979C131.979 34.2451 126.855 30 120.559 30C114.262 30 109.138 34.2451 109.138 39.4617H71.0689C71.0689 34.2451 65.9449 30 59.6483 30C53.3517 30 48.2276 34.2451 48.2276 39.4617H36.8069C34.7021 39.4617 33 40.8746 33 42.6155V121.463C33 123.204 34.7021 124.617 36.8069 124.617H143.4C145.505 124.617 147.207 123.204 147.207 121.463V42.6155C147.207 40.8746 145.505 39.4617 143.4 39.4617ZM116.752 39.4617C116.752 37.7242 118.457 36.3078 120.559 36.3078C122.66 36.3078 124.365 37.7242 124.365 39.4617V48.9233C124.365 50.6608 122.66 52.0772 120.559 52.0772C118.457 52.0772 116.752 50.6608 116.752 48.9233V39.4617ZM55.8414 39.4617C55.8414 37.7242 57.5468 36.3078 59.6483 36.3078C61.7497 36.3078 63.4552 37.7242 63.4552 39.4617V48.9233C63.4552 50.6608 61.7497 52.0772 59.6483 52.0772C57.5468 52.0772 55.8414 50.6608 55.8414 48.9233V39.4617ZM48.2276 45.7694V48.9233C48.2276 54.1399 53.3517 58.385 59.6483 58.385C65.9449 58.385 71.0689 54.1399 71.0689 48.9233V45.7694H109.138V48.9233C109.138 54.1399 114.262 58.385 120.559 58.385C126.855 58.385 131.979 54.1399 131.979 48.9233V45.7694H139.593V61.5389H40.6138V45.7694H48.2276ZM40.6138 118.309V67.8466H139.593V118.309H40.6138ZM59.6483 89.9239V96.2316C59.6483 97.9726 57.9462 99.3855 55.8414 99.3855C53.7365 99.3855 52.0345 97.9726 52.0345 96.2316V93.0777H48.2276C46.1227 93.0777 44.4207 91.6648 44.4207 89.9239C44.4207 88.1829 46.1227 86.77 48.2276 86.77H55.8414C57.9462 86.77 59.6483 88.1829 59.6483 89.9239V89.9239ZM59.6483 105.693V112.001C59.6483 113.742 57.9462 115.155 55.8414 115.155C53.7365 115.155 52.0345 113.742 52.0345 112.001V108.847H48.2276C46.1227 108.847 44.4207 107.434 44.4207 105.693C44.4207 103.952 46.1227 102.539 48.2276 102.539H55.8414C57.9462 102.539 59.6483 103.952 59.6483 105.693ZM78.6827 89.9239V96.2316C78.6827 97.9726 76.9807 99.3855 74.8758 99.3855C72.771 99.3855 71.0689 97.9726 71.0689 96.2316V93.0777H67.262C65.1572 93.0777 63.4552 91.6648 63.4552 89.9239C63.4552 88.1829 65.1572 86.77 67.262 86.77H74.8758C76.9807 86.77 78.6827 88.1829 78.6827 89.9239V89.9239ZM78.6827 105.693V112.001C78.6827 113.742 76.9807 115.155 74.8758 115.155C72.771 115.155 71.0689 113.742 71.0689 112.001V108.847H67.262C65.1572 108.847 63.4552 107.434 63.4552 105.693C63.4552 103.952 65.1572 102.539 67.262 102.539H74.8758C76.9807 102.539 78.6827 103.952 78.6827 105.693ZM97.7172 74.1544V80.4622C97.7172 82.2032 96.0151 83.6161 93.9103 83.6161C91.8055 83.6161 90.1034 82.2032 90.1034 80.4622V77.3083H86.2965C84.1917 77.3083 82.4896 75.8954 82.4896 74.1544C82.4896 72.4134 84.1917 71.0005 86.2965 71.0005H93.9103C96.0151 71.0005 97.7172 72.4134 97.7172 74.1544ZM97.7172 89.9239V96.2316C97.7172 97.9726 96.0151 99.3855 93.9103 99.3855C91.8055 99.3855 90.1034 97.9726 90.1034 96.2316V93.0777H86.2965C84.1917 93.0777 82.4896 91.6648 82.4896 89.9239C82.4896 88.1829 84.1917 86.77 86.2965 86.77H93.9103C96.0151 86.77 97.7172 88.1829 97.7172 89.9239V89.9239ZM116.752 74.1544V80.4622C116.752 82.2032 115.05 83.6161 112.945 83.6161C110.84 83.6161 109.138 82.2032 109.138 80.4622V77.3083H105.331C103.226 77.3083 101.524 75.8954 101.524 74.1544C101.524 72.4134 103.226 71.0005 105.331 71.0005H112.945C115.05 71.0005 116.752 72.4134 116.752 74.1544ZM116.752 89.9239V96.2316C116.752 97.9726 115.05 99.3855 112.945 99.3855C110.84 99.3855 109.138 97.9726 109.138 96.2316V93.0777H105.331C103.226 93.0777 101.524 91.6648 101.524 89.9239C101.524 88.1829 103.226 86.77 105.331 86.77H112.945C115.05 86.77 116.752 88.1829 116.752 89.9239V89.9239ZM135.786 74.1544V80.4622C135.786 82.2032 134.084 83.6161 131.979 83.6161C129.874 83.6161 128.172 82.2032 128.172 80.4622V77.3083H124.365C122.261 77.3083 120.559 75.8954 120.559 74.1544C120.559 72.4134 122.261 71.0005 124.365 71.0005H131.979C134.084 71.0005 135.786 72.4134 135.786 74.1544ZM135.786 89.9239V96.2316C135.786 97.9726 134.084 99.3855 131.979 99.3855C129.874 99.3855 128.172 97.9726 128.172 96.2316V93.0777H124.365C122.261 93.0777 120.559 91.6648 120.559 89.9239C120.559 88.1829 122.261 86.77 124.365 86.77H131.979C134.084 86.77 135.786 88.1829 135.786 89.9239V89.9239Z" fill="#6DD743"/>
</svg>

<svg xmlns="http://www.w3.org/2000/svg" width="180" height="180" fill="none" viewBox="0 0 180 180">
  <path
    fill="#6dd743"
    d="M143.4 39.462h-11.421c0-5.217-5.124-9.462-11.42-9.462s-11.421 4.245-11.421 9.462h-38.07c0-5.217-5.123-9.462-11.42-9.462s-11.42 4.245-11.42 9.462H36.807c-2.105 0-3.807 1.413-3.807 3.153v78.848c0 1.741 1.702 3.154 3.807 3.154H143.4c2.105 0 3.807-1.413 3.807-3.154V42.616c0-1.741-1.702-3.154-3.807-3.154zm-26.648 0c0-1.738 1.705-3.154 3.807-3.154s3.806 1.416 3.806 3.154v9.461c0 1.738-1.705 3.154-3.806 3.154s-3.807-1.416-3.807-3.154v-9.461zm-60.91 0c0-1.738 1.705-3.154 3.806-3.154s3.807 1.416 3.807 3.154v9.461c0 1.738-1.705 3.154-3.807 3.154s-3.807-1.416-3.807-3.154v-9.461zm-7.614 6.307v3.154c0 5.217 5.124 9.462 11.42 9.462s11.42-4.245 11.42-9.462V45.77h38.07v3.154c0 5.217 5.124 9.462 11.421 9.462s11.42-4.245 11.42-9.462V45.77h7.614v15.77h-98.98V45.77h7.615zm-7.614 72.54V67.847h98.979v50.462h-98.98zm19.034-28.385v6.308c0 1.74-1.702 3.153-3.807 3.153s-3.806-1.412-3.806-3.153v-3.154h-3.807c-2.105 0-3.807-1.413-3.807-3.154s1.702-3.154 3.807-3.154h7.613c2.105 0 3.807 1.413 3.807 3.154zm0 15.769v6.308c0 1.741-1.702 3.154-3.807 3.154s-3.806-1.413-3.806-3.154v-3.154h-3.807c-2.105 0-3.807-1.413-3.807-3.154s1.702-3.154 3.807-3.154h7.613c2.105 0 3.807 1.413 3.807 3.154zm19.035-15.77v6.309c0 1.74-1.702 3.153-3.807 3.153s-3.807-1.412-3.807-3.153v-3.154h-3.807c-2.105 0-3.807-1.413-3.807-3.154s1.702-3.154 3.807-3.154h7.614c2.105 0 3.807 1.413 3.807 3.154zm0 15.77v6.308c0 1.741-1.702 3.154-3.807 3.154s-3.807-1.413-3.807-3.154v-3.154h-3.807c-2.105 0-3.807-1.413-3.807-3.154s1.702-3.154 3.807-3.154h7.614c2.105 0 3.807 1.413 3.807 3.154zm19.034-31.539v6.308c0 1.741-1.702 3.154-3.807 3.154s-3.807-1.413-3.807-3.154v-3.154h-3.806c-2.105 0-3.807-1.413-3.807-3.154s1.702-3.153 3.806-3.153h7.614c2.105 0 3.807 1.412 3.807 3.153zm0 15.77v6.308c0 1.74-1.702 3.153-3.807 3.153s-3.807-1.412-3.807-3.153v-3.154h-3.806c-2.105 0-3.807-1.413-3.807-3.154s1.702-3.154 3.806-3.154h7.614c2.105 0 3.807 1.413 3.807 3.154zm19.035-15.77v6.308c0 1.741-1.702 3.154-3.807 3.154s-3.807-1.413-3.807-3.154v-3.154h-3.807c-2.105 0-3.807-1.413-3.807-3.154s1.702-3.153 3.807-3.153h7.614c2.105 0 3.807 1.412 3.807 3.153zm0 15.77v6.308c0 1.74-1.702 3.153-3.807 3.153s-3.807-1.412-3.807-3.153v-3.154h-3.807c-2.105 0-3.807-1.413-3.807-3.154s1.702-3.154 3.807-3.154h7.614c2.105 0 3.807 1.413 3.807 3.154zm19.034-15.77v6.308c0 1.741-1.702 3.154-3.807 3.154s-3.807-1.413-3.807-3.154v-3.154h-3.807c-2.104 0-3.806-1.413-3.806-3.154s1.702-3.153 3.806-3.153h7.614c2.105 0 3.807 1.412 3.807 3.153zm0 15.77v6.308c0 1.74-1.702 3.153-3.807 3.153s-3.807-1.412-3.807-3.153v-3.154h-3.807c-2.104 0-3.806-1.413-3.806-3.154s1.702-3.154 3.806-3.154h7.614c2.105 0 3.807 1.413 3.807 3.154z"
  />
</svg>
